!!!OTL: Jris. Schoen sind Rosen und Jasmin et.
!!!OTL-incipit: SCHOEN SIND ROSEN UND JASMIN
!!!COM: J. A. Hiller
!!!ARE: Europa, Mitteleuropa, Deutschland
!!!SCT: F0936
!!!TXL: @@DE
!!!YEM: Copyright 1995, estate of Helmut Schaffrath.
**kern	**text
*ICvox	*
*clefG2	*
*M4/4	*
*met(c)	*
*k[b-e-a-]	*
*E-:	*
!LO:TX:a:t=Allegretto.	!
!LO:TX:a:t=Erste Weise des Liedes. Aus der Oper: "Die Jagd." Gedruckt 1771.	!
{8b-/L	Schön
8ee-J	.
(8gL	ſind
8a-J)	.
=1	=1
8b-/L	Ro-
8ee-J	.
8gL	-ſen
8a-J	.
8b-/L	und
8ee-J	.
8b-/L	Jas-
8ccJ	.
=2	=2
4ccqq	.
2b-/}	-min,
{(8a-/L	wenn
8ccJ)	.
(8fL	ſie
8a-J)	.
=3	=3
(8gL	noch
8b-J)	.
(8fL	im
8a-J)	.
4a-qq	.
2g	Len-
=4	=4
8f	-ʒen,
8r	.
4r}	.
{8b-/L	un-
8ee-J	.
8gL	-be-
8a-J	.
=5	=5
8b-/L	-rührt
8ee-J	.
(8gL	am
8a-J)	.
8b-/L	Sto-
8ee-J	.
8b-/L	-cke
8ccJ	.
=6	=6
4ccqq	.
2b-/}	blühn,
{(8a-/L	und
8ccJ)	.
(8fL	vom
8a-J)	.
=7	=7
(8gL	Thau-
8b-J)	.
(8fL	-e
8a-J)	.
4a-qq	.
2g	glän-
=8	=8
4f	-ʒen.
4r}	.
{4b-	A-
8an\L	-ber
8b-J	.
=9	=9
8ddqq	.
4cc	rei-
8b-L	-ʒen-
8ccJ	.
8ee-qq	.
4dd	-der,
8ccL	als
8ddJ	.
=10	=10
4ffqq	.
2ee-}	die,
{(8ddL	blü-
8ffJ)	.
(8ccL	-hen
8ee-J)	.
=11	=11
8ddL	J-
8ffJ	.
8ee-L	-ris
8ccJ	.
4b-qq	.
2an	Wan-
=12	=12
2b-/}	-gen;
{8b-/L	keu-
8ee-J	.
8gL	-ſche
8a-J	.
=13	=13
8b-/L	Lie-
8ee-J	.
8gL	-be
8a-J	.
8b-/L	färb-
8ee-J	.
8b-/L	-te
8ccJ	.
=14	=14
4ccqq	.
2b-/}	ſie,
{(8a-/L	ſe-
8ccJ)	.
(8fL	-lig,
8a-J)	.
=15	=15
(8gL	wem
8b-J)	.
(8e-L	ſie
8gJ)	.
(8fL	pran-
8a-J)	.
(8dL	.
8fJ)	.
=16	=16
8e-	-gen,
8r	.
4r}	.
{(8a-L	ſe-
8ccJ)	.
(8fL	-lig,
8a-J)	.
=17	=17
(8gL	wem
8b-J)	.
(8e-L	ſie
8gJ)	.
(8fL	pran-
8a-)	.
(8d	.
8fJ)	.
=18	=18
8e-	-gen!
4.r}	.
==	==
!!!AGN: Liebes - Lied
!!!ONB: ESAC (Essen Associative Code) Database: FINK
!!!AMT: simple quadruple
!!!AIN: vox
!!!EED: Helmut Schaffrath
!!!EEV: 1.0
!!!RDF**kern: > = above
!!!GTL: Minnelieder
!!!source: Musikalischer Hausschatz der Deutschen. Eine Sammlung von über 1000 Liedern und Gesängen mit Singstimmen und Klavierbegleitung. Leipzig, Litterarisches Verlags-Haus.
!!!page: 694
!!!URL-scan: https://www.digitale-sammlungen.de/en/view/bsb11144622?page=605
!!!ENC: Anna Maria Matuszewska
!!!EEV: 2024/08/08
*-	*-